src/assets/images/devto.svg

<?xml version="1.0" encoding="UTF-8"?>
<svg width="20px" height="20px" viewBox="0 0 20 20" version="1.1" xmlns="http://www.w3.org/2000/svg" xmlns:xlink="http://www.w3.org/1999/xlink">
    <title>devto</title>
    <g id="Welcome" stroke="none" stroke-width="1" fill="none" fill-rule="evenodd">
        <g id="Contact" transform="translate(-110.000000, -69.000000)" fill="#FFFFFF" fill-rule="nonzero">
            <g id="Icons" transform="translate(16.000000, 69.000000)">
                <g id="devto" transform="translate(94.000000, 0.000000)">
                    <path d="M5.3625,7.87008929 C5.18928571,7.740625 5.015625,7.67589286 4.84241071,7.67589286 L4.06383929,7.67589286 L4.06383929,12.3397321 L4.84285714,12.3397321 C5.01607143,12.3397321 5.18973214,12.275 5.36294643,12.1455357 C5.53616071,12.0160714 5.62276786,11.821875 5.62276786,11.5625 L5.62276786,8.453125 C5.62232143,8.19419643 5.53526786,7.99955357 5.3625,7.87008929 L5.3625,7.87008929 Z M18.0401786,0 L1.95982143,0 C0.879464286,0 0.00267857143,0.874553571 0,1.95535714 L0,18.0446429 C0.00267857143,19.1254464 0.879464286,20 1.95982143,20 L18.0401786,20 C19.1209821,20 19.9973214,19.1254464 20,18.0446429 L20,1.95535714 C19.9973214,0.874553571 19.1205357,0 18.0401786,0 L18.0401786,0 Z M6.88392857,11.5709821 C6.88392857,12.4107143 6.365625,13.6830357 4.725,13.6803614 L2.65357143,13.6803614 L2.65357143,6.29375 L4.76875,6.29375 C6.35089286,6.29375 6.88303571,7.56428571 6.88348214,8.40446429 L6.88392857,11.5709821 Z M11.3785714,7.61294643 L9,7.61294643 L9,9.328125 L10.4540179,9.328125 L10.4540179,10.6482143 L9,10.6482143 L9,12.3629464 L11.3790179,12.3629464 L11.3790179,13.6830357 L8.603125,13.6830357 C8.10491071,13.6959821 7.690625,13.3022321 7.678125,12.8040179 L7.678125,7.21875 C7.66607143,6.72098214 8.06026786,6.30758929 8.55803571,6.29508929 L11.3790179,6.29508929 L11.3785714,7.61294643 Z M16.0053571,12.7598214 C15.4160714,14.1325893 14.3602679,13.859375 13.8875,12.7598214 L12.1674107,6.29553571 L13.6214286,6.29553571 L14.9477679,11.3723214 L16.2678571,6.29553571 L17.7223214,6.29553571 L16.0053571,12.7598214 Z" id="Shape"></path>
                </g>
            </g>
        </g>
    </g>
</svg>

<svg xmlns="http://www.w3.org/2000/svg" width="20" height="20"  xmlns:v="https://vecta.io/nano"><path d="M5.363 7.87c-.173-.129-.347-.194-.52-.194h-.779v4.664h.779c.173 0 .347-.065.52-.194s.26-.324.26-.583V8.453c0-.259-.087-.454-.26-.583h0zM18.04 0H1.96A1.96 1.96 0 0 0 0 1.955v16.089A1.96 1.96 0 0 0 1.96 20h16.08A1.96 1.96 0 0 0 20 18.045V1.955A1.96 1.96 0 0 0 18.04 0h0zM6.884 11.571c0 .84-.518 2.112-2.159 2.109H2.654V6.294h2.115c1.582 0 2.114 1.271 2.115 2.111v3.167zm4.495-3.958H9v1.715h1.454v1.32H9v1.715h2.379v1.32H8.603a.9.9 0 0 1-.925-.879V7.219c-.012-.498.382-.911.88-.924h2.821v1.318zm4.627 5.147c-.589 1.373-1.645 1.1-2.118 0l-1.72-6.464h1.454l1.326 5.077 1.32-5.077h1.454l-1.717 6.464z" fill="#fff"/></svg>
